X:1
T:Title
%%score { ( 1 3 ) | 2 }
L:1/8
M:4/4
K:A
V:1 treble nm="Grand Piano"
V:3 treble 
V:2 bass 
V:1
 z4 z2 z[Q:1/4=90] [CE] | [Ec]>[Ec] [Ec]>C [DB]<[CA] [EA]>[EA] | [FA]>[FB] [FA]>[DF] [CE]3 [CE] | %3
 [A,DF]>[A,FA] [A,EG]>[A,DF] [A,CE]>[CEA] [CEA]>[CEA] | c>c B>A B3 E | %5
 [Ec]>[Ec] [Ec]>[CA] [DB]<[CA] [CA]>[FA] | [FA]>[FB] [FA]>[A,DF] [A,CE]3 [A,E] | %7
 [A,DF]>[A,FA] [A,EG]>[A,DF] [CE]>[EA] [EA][FB]/[FB]/ |[M:7/8] c>Ac/c/ B [A,CA]3 |[M:1/8] [CEA] | %10
[M:4/4] [Ec][Ec] [CE]/[CE]/[DF] z z/ A,/ A,[A,EA] | [FB][FB] [DF]/[DF]/[EG] z z/ A,/ A,F | %12
 G>G G>A B>^A B>G | [CA]>[CA] [EA]>B c>B cc/c/ | e2 A2 [Ac]<[Ac] [DGB]2 | %15
[M:7/8] [CA]-[CA]-[CA]- [CA]- [CA]3 |] %16
V:2
 z4 z2 z [A,,A,] | [A,,A,]>[A,,A,] [A,,A,]>[A,,E,] [A,,E,]<[A,,E,] [C,A,]>[C,A,] | %2
 [D,D]>[D,D] [D,D]>[D,A,] [A,,A,]3 [A,,A,] | D,>D, D,>D, A,,>A,, A,,>A,, | %4
 [A,E]>[A,E] [G,B,E]>[F,B,^D] [E,G,E]3 [E,G,] | %5
 [A,,A,]>[A,,A,] [A,,A,]>[A,,E,] [A,,E,]<[A,,E,] [A,,E,]>[C,A,] | [D,D]>[D,D] [D,D]>D, A,,3 C, | %7
 D,>D, D,>D, [A,,A,]>[A,,A,] [C,A,][D,A,]/[D,A,]/ | %8
[M:7/8] [E,A,E]>[F,A,C][E,A,E]/[E,A,E]/ [E,G,D] A,,3 |[M:1/8] A,, | %10
[M:4/4] [A,,A,][A,,A,] [A,,A,]/[A,,A,]/[A,,A,] [A,,A,]>A,, A,,C, | %11
 [D,A,][D,A,] [D,A,]/[D,A,]/[D,A,] [D,A,]>D, D,[D,A,D] | %12
 [E,D]>[E,D] [E,B,D]>[E,A,E] [E,G,D]>[E,F,D] [E,G,D]>[E,B,D] | %13
 [A,,A,]>[A,,A,] [C,A,]>[E,G,E][K:treble] [A,E]>[A,^D] [A,E][A,E]/[A,E]/ | %14
 [A,CA]2[K:bass] [F,C]2 [E,E]<[E,E] E,2 |[M:7/8] A,,-A,,-A,,- A,,- A,,3 |] %16
V:3
 x8 | x8 | x8 | x8 | x8 | x8 | x8 | x8 |[M:7/8] x7 |[M:1/8] x |[M:4/4] z4 [CE]4 | z4 [DF]4 | x8 | %13
 x8 | x8 |[M:7/8] x7 |] %16

